!!!!SEGMENT: 050-1-ME-002.krn
!!!COM: Chopin, Fryderyk
!!!OTL: Mazourka No. 2.
!!!OPS: Op. 50
!!!PTL: Trois MAZOURKAS pour le PIANO
!!!PPR: Mechetti
!!!PPP: Vienna
!!!AFR: mazurka
!!!NIFC-rismID: 1001029903
!!!NIFC-shelfmark: PL-Wbfc 671/n
!!!OMD: Allegretto.
**kern	**kern	**dynam
*part1	*part1	*part1
*staff2	*staff1	*
*clefF4	*clefG2	*
*>[A,B,B,C,C,D]	*>[A,B,B,C,C,D]	*
*k[b-e-a-d-]	*k[b-e-a-d-]	*
*A-:	*A-:	*
*M3/4	*M3/4	*
*	*	*
=1-	=1-	=1-
*>A	*>A	*
*^	*	*
!LO:TX:Bi:a:t=m.v.	!	!	!
4E-\	[<2EE-\	(>4e- 4d- 4G<	.
2E-\	.	2f^ 2d- 2A-<	.
.	(<8EE-L]	.	.
.	8DDnJ	.	.
=2	=2	=2	=2
*ped	*	*	*
4E-\	[<2EE-)	4e- 4d- 4G<	.
2E-\	.	2g^ 2d- 2G<	.
.	(<8EE-L]	.	.
.	8DDnJ	.	.
*Xped	*	*	*
=3	=3	=3	=3
4E-\	[<2EE-)	4e- 4d- 4G<	.
2E-\	.	2f^ 2d- 2A-<	.
.	(<8EE-L]	.	.
.	8DDnJ	.	.
=4	=4	=4	=4
*ped	*	*	*
4E-\	[<2EE-)	4e- 4d- 4G<	.
8qG	.	.	.
:2E-\	.	:2b-^ 2d- 2G<	.
*Xped	*	*	*
.	(<8EE-L]	.	.
.	8DDnJ	.	.
=5	=5	=5	=5
4E-\	[<2EE-)	4e- 4d- 4G<	.
2E-\	.	2f^ 2d- 2A-<	.
.	(<8EE-L]	.	.
.	8DDnJ	.	.
*v	*v	*	*
=6	=6	=6
*ped	*	*
4E- 4EE-)\	4e- 4d- 4G<	<
2B- 2E-	2dd- 2g	[[
=7	=7	=7
*Xped	*	*
4e- 4E-	4cc 4g\	.
.	.	>
[>2d- [<2E-	[>2b- [<2g\	.
=8	=8	=8
*	*^	*
2.d-] 2.E-]	2b-]/	2.g])	]
.	(>4bn	.	.
*	*v	*v	*
!!LO:LB:g=original
=9	=9	=9
*ped	*	*
4AA-'<	8ccL	.
.	8dd-J	.
:4a- 4c 4E-	4.ee-	.
*Xped	*	*
4r	.	.
.	8ff	.
=10	=10	=10
*ped	*	*
4EE-'<	8ee-L	.
.	8ddnJ	.
4g 4d-	4.dd-X	.
4g 4d-	.	.
*Xped	*	*
.	8cc	.
=11	=11	=11
*ped	*	*
4E-	8b-M>L	.
.	8an	.
4e- 4d-	8b-	.
.	8ccJ	.
4e- 4d-	4g\	.
*Xped	*	*
.	.	.
=12	=12	=12
.	8qb-/	.
*ped	*	*
(>4AA-	8a-L	.
.	16r	.
.	16gJk	.
4c 4E-)	4a-)	.
*Xped	*	*
4r	(>4c	.
=13	=13	=13
*ped	*	*
4FF	8a-L\	.
.	8b-J	.
4f 4A-	4.cc	.
4f 4c 4A-	.	.
*Xped	*	*
.	8dd-	.
=14	=14	=14
*ped	*	*
4C	8ccL	.
.	8bnJ	.
4en 4B-	4.b-X	.
4e 4B-	.	.
*Xped	*	*
.	8a-\	.
=15	=15	=15
*ped	*	*
4C	8gm>L	.
.	8f	.
4c 4B-	8g	.
.	8a-J	.
*Xped	*	*
4c 4B-	4en	.
=16	=16	=16
*	*^	*
*ped	*	*	*
!	!LO:N:vis=2	!	!
4FF	8fL	2f	.
.	16r	.	.
*Xped	*	*	*
.	16ffJk	.	.
4d- 4A- 4D-	4.ee-	.	.
[>4E- (<4GG\	.	4e-	.
.	8dd-	.	.
*	*v	*v	*
!!LO:LB:g=original
=17	=17	=17
*ped	*	*
(>4E-] 4AA-)	8ccL	.
.	8dd-J	.
*clefG2	*	*
4a- 4c)	4ee-	.
*Xped	*	*
4r	8ggL	.
.	8ffJ	.
*clefF4	*	*
=18	=18	=18
*ped	*	*
4EE-	8ee-L	.
.	8ddnJ	.
4g 4d-	4.dd-X	.
*Xped	*	*
4g [>4d-	.	.
.	8cc	.
=19	=19	=19
*^	*	*
*ped	*	*	*
4d-]	2E-	8b-M>L	.
.	.	8an	.
2d-	.	8b-	.
.	.	8ccJ	.
.	4En	4g\	.
*Xped	*	*	*
=20	=20	=20	=20
.	.	8qb-/	.
*ped	*	*	*
4rf	2.F	8a-L	.
.	.	16r	.
.	.	16gJk	.
4c 4A-	.	4a-	.
*Xped	*	*	*
4c 4A-	.	4en	.
*v	*v	*	*
=21	=21	=21
*ped	*	*
4D-	8.fL	.
.	16gJk	.
4f 4B- 4G	4a-	.
*Xped	*	*
4f 4B- 4G	4b-/	.
=22	=22	=22
*ped	*	*
4C	8.ccL/	.
.	16dd-Jk	.
4en 4B-	4.cc/	.
4e 4B-	.	.
.	8g	.
*Xped	*	*
=23	=23	=23
.	16qqf/LL	.
.	16qqg/JJ	.
*ped	*	*
4D-	8fL	.
.	8en	.
4B- 4G	8f	.
.	8g	.
4f 4B- 4G	8a-	.
*Xped	*	*
.	8b-J	.
=24	=24	=24
*ped	*	*
4C	8ccL	.
.	8qee-/	.
.	8dd-J	.
4en 4G	4.cc	.
4C	.	.
*Xped	*	*
.	8bn	.
!!LO:LB:g=original
=25	=25	=25
*^	*	*
*ped	*	*	*
!	!	!LO:TUP:a	!
4rB	2.D-	12b-XL	.
.	.	12cc	.
.	.	12b-J	.
4e-X 4G	.	8anL	.
.	.	8b-	.
4e- 4G	.	8cc	.
*Xped	*	*	*
.	.	8dd-J	.
*v	*v	*	*
=26	=26	=26
*ped	*	*
4C\	8ffL	.
.	8ee-J	.
4e- 4A-	2aa-	.
*Xped	*	*
4F	.	.
=27	=27	=27
*ped	*	*
4E-	8anL	.
.	8b-	.
4a-X 4dn 4B-	8gg	.
.	8ff	.
4g 4d-X 4B-	8ee-	.
*Xped	*	*
.	8e-J	.
=28	=28	=28
*ped	*	*
(>4AA-\	8dd-L	.
.	8ccJ	.
4c 4E-)	2a-X\	.
*Xped	*	*
(>4BB-\	.	.
=29	=29	=29
*ped	*	*
4C)\	4g'> 4en'> 4B-'>	.
4r	(>4.cc^<)	.
.	.	.
[>4c	.	>
*Xped	*	*
.	8b-	.
=30	=30	=30
.	8qb-/	]
4c]	8.a-L	.
.	16gJk	.
.	.	<
(>4c	4a-	.
4d- 4A- 4F)	4f	[
=31	=31	=31
*^	*	*
4r	4r	8enL	.
.	.	8fJ	.
[>2d-	4B-	4g	.
.	4C	8a-L	.
.	.	8gJ	.
=32	=32	=32	=32
.	.	16qqf/LL	.
.	.	16qqg/JJ	.
4d-]	4r	8fL	.
.	.	8enJ	.
2ryy	(>4Bn 4A-	4f	.
.	4C\)	4dn	.
*v	*v	*	*
!!LO:LB:g=original
=33	=33	=33
*ped	*	*
4r	8.gL	.
.	16cJk	.
(>4en 4G	4.cc/	.
4C)\	.	.
*Xped	*	*
.	8b-/	.
=34	=34	=34
.	8qb-/	.
*ped	*	*
4FF	8.a-L	.
.	16gJk	.
4c 4A-	4a-	.
*Xped	*	*
4dn 4A-	4f	.
=35	=35	=35
*ped	*	*
4GG	8enL	.
.	8fJ	.
4c 4G	4g	.
4f 4Bn 4G	8eenL	.
*Xped	*	*
.	8ddnJ	.
=36	=36	=36
.	16qqcc/LL	.
.	16qqdd/JJ	.
*ped	*	*
4C	8.ccL	.
.	16bnJk	.
(>4en 4c 4G	2cc	.
*Xped	*	*
[>4f [>4c [<4A-	.	.
=37	=37	=37
.	16qcc/LL	.
.	16qddn/JJ	.
4f] 4c] 4A-]	8.ccL	.
.	16bnJk	.
4en 4c 4G	2cc	.
4f 4c 4A-)	.	.
=38	=38	=38
.	8qddn/	.
*ped	*	*
4C	8.ccL	.
.	16bnJk	.
*Xped	*	*
4en 4G	4.cc	.
4C	.	.
.	8b	.
=39	=39	=39
4en 4G	8ccL	.
.	8bnJ	.
4C	4cc	.
4e 4G	4b	.
=40	=40	=40
*ped	*	*
4AA-'<	8ccL	.
.	8dd-J	.
:4a- 4c 4E-	4.ee-	.
*Xped	*	*
4r	.	.
.	8ff	.
!!LO:LB:g=original
=41	=41	=41
*ped	*	*
4EE-'<	8ee-L	.
.	8ddnJ	.
4g 4d-	4.dd-X	.
4g 4d-	.	.
*Xped	*	*
.	.	.
.	8cc	.
=42	=42	=42
*ped	*	*
4E-	8b-M>L	.
.	8an	.
4e- 4d-	8b-	.
.	8ccJ	.
*Xped	*	*
4e- 4d-	4g\	.
=43	=43	=43
.	8qb-/	.
*ped	*	*
(>4AA-	8a-L	.
.	16r	.
.	16gJk	.
4c 4E-)	4a-)	.
*Xped	*	*
.	.	.
4r	(>4c	.
=44	=44	=44
*ped	*	*
.	.	.
4FF	8a-\L	.
.	8b-J	.
4f 4A-	4.cc	.
*Xped	*	*
4f 4c 4A-	.	.
.	8dd-	.
=45	=45	=45
*ped	*	*
4C	8ccL	.
.	8bnJ	.
4en 4B-	4.b-X	.
*Xped	*	*
4e 4B-	.	.
.	8a-\	.
=46	=46	=46
*ped	*	*
4C	8gm>L	.
.	8f	.
4c 4B-	8g	.
.	8a-J	.
*Xped	*	*
4c 4B-	4en	.
=47	=47	=47
*	*^	*
!	!LO:N:vis=2	!	!
*ped	*	*	*
4FF	8fL	2f	.
.	16r	.	.
.	16ffJk	.	.
*Xped	*	*	*
4d- 4A- 4D-	4.ee-	.	.
[>4E- (<4GG\	.	4e-	.
.	8dd-	.	.
*	*v	*v	*
=48	=48	=48
*ped	*	*
(>4E-] 4AA-)	8ccL	.
.	8dd-J	.
*clefG2	*	*
4a- 4c)	4ee-	.
4r	8ggL	.
*Xped	*	*
.	8ffJ	.
*clefF4	*	*
!!LO:PB:g=original
=49	=49	=49
4EE-	8ee-L	.
*ped	*	*
.	.	.
.	8ddnJ	.
4g 4d-	4.dd-X	.
4g [>4d-	.	.
*Xped	*	*
.	8cc	.
=50	=50	=50
*^	*	*
*ped	*	*	*
4d-]	2E-	8b-M>L/	.
.	.	8an	.
2d-	.	8b-	.
.	.	8ccJ	.
.	4En	4g	.
*Xped	*	*	*
.	.	.	.
=51	=51	=51	=51
.	.	8qb-/	.
*ped	*	*	*
4rd	2.F	8a-L	.
.	.	16r	.
.	.	16gJk	.
4c 4A-	.	4a-	.
*Xped	*	*	*
4c 4A-	.	4en	.
*v	*v	*	*
=52	=52	=52
*ped	*	*
4D-	8.fL	.
.	16gJk	.
4f 4B- 4G	4a-	.
*Xped	*	*
4f 4B- 4G	4b-/	.
=53	=53	=53
*ped	*	*
4C	8.ccL/	.
.	16dd-Jk	.
4en 4B-	4.cc/	.
4e 4B-	.	.
*Xped	*	*
.	8g	.
=54	=54	=54
.	16qqf/LL	.
.	16qqg/JJ	.
*ped	*	*
4D-	8fL\	.
.	8en	.
4B- 4G	8f	.
.	8g	.
4f 4B- 4G	8a-	.
*Xped	*	*
.	8b-J	.
=55	=55	=55
*ped	*	*
4C\	8ccL	.
.	8qee-/	.
.	8dd-J	.
4en 4G	4.cc	.
4C\	.	.
*Xped	*	*
.	8bn	.
=56	=56	=56
*^	*	*
*ped	*	*	*
!	!	!LO:TUP:a	!
4rB	2.D-	12b-XL	.
.	.	12cc	.
.	.	12b-J	.
4e-X 4G	.	8anL	.
.	.	8b-	.
4e- 4G	.	8cc	.
*Xped	*	*	*
.	.	8dd-J	.
*v	*v	*	*
=57	=57	=57
*ped	*	*
4C\	8ffL	.
.	8ee-J	.
4e- 4A-	2aa-	.
*Xped	*	*
4F	.	.
!!LO:LB:g=original
=58	=58	=58
*ped	*	*
4E-	8anL	.
.	8b-	.
4a-X 4dn 4B-	8gg	.
.	8ff	.
*Xped	*	*
4g 4d-X 4B-	8ee-	.
.	8e-J	.
=59	=59	=59
*ped	*	*
!LO:N:vis=2	!	!
(>4AA-\	8dd-L	.
.	8ccJ	.
4c 4E-)	4.a-X\	.
4r	.	.
*Xped	*	*
.	8g-X\	.
=60!|:	=60!|:	=60!|:
*>B	*>B	*
*k[b-e-a-d-g-]	*k[b-e-a-d-g-]	*
!LO:TX:a:t=P:problem:bemole po kresce taktowej	!	!
8A-L 8D-	8f)L	p
16r	16r	.
16A-Jk 16D-	16f'>Jk 16d-'>	.
4A- 4D-	4f'> 4d-'>	.
4GG-\	(>4g-^ 4B-	.
=61	=61	=61
.	(<8qf/	.
8G-L 8AA-\	8e-L 8c)	.
16r	16r)	.
16FJk 16AA-	16dn'>Jk 16c'>	.
4G- 4AA-	4e-'> 4c'>	.
4Dn 4AA-\	(>4f^ 4c	.
=62	=62	=62
.	(<8qa-/	.
8E-L 8AA-\	8g-L 8c)	<
16r	16r)	.
16DnJk 16AA-	16f'>Jk 16c'>	.
4E- 4AA-\	4g-'> 4c'>	.
4En 4AA-\	(>4gn^ 4B-	.
=63	=63	=63
:8EnL 8AA- 8DD-\	:8b-L 8d- 8B-	.
16r	16r)	.
16GnJk 16D-	16b-'>Jk 16en'>	.
4G 4D-	4b-'> 4e'>	.
4A- 4D-	(>4a- 4f	.
=64	=64	=64
8A-L 8D-	8fL 8d-	.
16r	16r)	.
16A-Jk 16D-	16f'>Jk 16d-'>	.
4A- 4D-	4f'> 4d-'>	.
4GG-\	(>4g-^ 4B-	.
=65	=65	=65
.	(<8qf/	.
8G-L 8AA-\	8e-)L 8c	.
16r	16rf)	.
16FJk 16AA-	16dn'>Jk 16c'>	.
4G- 4AA-	(>4e-'> 4c'>	<
4Dn 4AA-\	4f 4c	.
!!LO:LB:g=original
=66	=66	=66
8E-L 8AA-\	8g-L 8c	.
16r	16r)	.
16FJk 16AA-	16a-'>Jk 16c'>	<
4G- 4AA-	4b-'> 4c'>	.
4E- 4AA-\	(>4cc 4g- 4c	[
=67	=67	=67
8cL 8A- 8D-	8ee-L 8g-/	.
16r	16r)	.
16cJk 16A- 16D-	16ee-'>Jk 16g-'>	.
4c 4A- 4D-	4ee-'> 4g-/'>	.
4d- 4A- 4D-	(>4dd- 4f	>
=68:|!|:	=68:|!|:	=68:|!|:
*>C	*>C	*
*ped	*	*
:8d-L 8F 8BB-	8dd-L 8f	] p
16r	16r)	.
16d-Jk 16F 16BB-	16dd-'>Jk 16f'>	.
4d- 4F 4BB-	4dd-'> 4f'>	>
*Xped	*	*
4d- 4F 4BB-	(>4ee- 4f/	]
=69	=69	=69
.	8qdd-/	.
8AnL 8F 8BB-	8ccL 8e-	.
16r	16r)	.
16AJk 16F 16BB-	16bn'>Jk 16e-'>	.
4A 4F 4BB-	4cc'> 4e-'>	.
4A 4F 4BB-	(>4f^ 4e-	.
=70	=70	=70
8B-L 8F 8BB-	8b-L 8d-	.
16r	16r)	.
16FJk 16BB-	16b-'>Jk 16d-'>	.
4F 4BB-	4b-'> 4d-'>	.
4F 4BB-	(>4cc^ 4d-	.
=71	=71	=71
.	(<8qdd- 8qd-/	.
8FL 8FF\	8anL 8c)	.
16r	16r)	.
16FJk 16FF\	16gn'>Jk 16B-'>	.
4F 4FF\	4a'> 4c'>	.
4F 4FF\	(>4f^ 4e- 4An	.
=72	=72	=72
8B-L 8F 8BB-	8dd-L 8f 8d-	.
*ped	*	*
16r	16r)	.
16d-Jk 16F 16BB-	16dd-'>Jk 16f'>	.
4d- 4F 4BB-	4dd-'> 4f'>	.
4d- 4F 4BB-	(>4ee-^ 4f/	.
*Xped	*	*
=73	=73	=73
.	(<8qdd-/	.
8AnL 8F 8BB-	8ccL 8e-)	.
16r	16r)	.
16AJk 16F 16BB-	16bn'>Jk 16e-'>	.
4A 4F 4BB-	4cc'> 4e-'>	.
4A 4F 4BB-	(>4f^ 4e-	.
=74	=74	=74
!	!LO:TX:b:Bi:t=ritenuto.	!
8B-L 8F 8BB-	8b-L 8d-	.
*ped	*	*
16r	16r)	.
16G-Jk 16EE-	16b-'>Jk 16d-'>	<
4G-\ 4EE-\	4b-'> 4d-'>	.
4G-\ 4EE-\	(>4cc^ 4d-	.
*Xped	*	*
.	.	.
!!LO:LB:g=original
=75	=75	=75
.	(<8qb-/	.
8G-L 8AA-	8a-L 8c)	.
16r	16r)	.
16G-Jk 16AA-	16gn'>Jk 16c'>	.
4G- 4AA-	4a-'> 4c'>	.
4G- 4AA-	(>4e-^ 4c	.
=76	=76	=76
*ped	*	*
.	.	.
8DD-'>L\	8f 8d- 8F<L	fz
16r	16r)	.
16A-Jk 16D-	16f'> 16d-J'>	p
4A- 4D-	4f'> 4d-'>	.
*Xped	*	*
4GG-\	(>4g-^ 4B-	.
=77	=77	=77
.	(<8qf/	.
8G-L 8AA-\	8e-L 8c)	.
16r	16r)	.
16FJk 16AA-	16dn'>Jk 16c'>	.
4G- 4AA-	4e-'> 4c'>	.
4Dn 4AA-\	(>4f^ 4c	.
=78	=78	=78
.	(<8qa-/	.
8E-L 8AA-\	8g-L 8c)	.
16r	16r)	.
16DnJk 16AA-	16f'>Jk 16c'>	.
4E- 4AA-\	4g-'> 4c'>	.
4En 4AA-\	(>4gn^ 4B-	.
=79	=79	=79
:8EnL 8AA- 8DD-\	:8b-L 8d- 8B-	.
16r	16r)	.
16GnJk 16D-	16b-'>Jk 16en'>	.
4G 4D-	4b-'> 4e'>	.
4A- 4D-	(>4a-^ 4f	.
=80	=80	=80
8A-L 8D-	8fL 8d-	.
16r	16r)	.
16A-Jk 16D-	16f'>Jk 16d-'>	.
4A- 4D-	4f'> 4d-'>	.
4GG-\	(>4g-^ 4B-	.
=81	=81	=81
.	(<8qf/	.
8G-L 8AA-\	8e-L 8c)	.
16r	16r)	.
16FJk 16AA-	16dn'>Jk 16c'>	.
4G- 4AA-	4e-'> 4c'>	<
4Dn 4AA-\	(>4f 4c	.
=82	=82	=82
8E-L 8AA-\	8g-L 8c	<
16r	16r)	.
16FJk 16AA-	16a-'>Jk 16c'>	.
4G- 4AA-	4b-'> 4c'>	.
4E- 4AA-\	(>4cc 4g- 4c	.
.	.	[
=83	=83	=83
8cL 8A- 8D-	8ee-L 8g-/	.
16r	16r)	[
16cJk 16A- 16D-)	16ee-'>Jk 16g-'>	.
4c 4A- 4D-	4ee-'> 4g-/'>	.
4d- 4A- 4D-	4dd-^ 4f	.
!!LO:LB:g=original
=84:|!	=84:|!	=84:|!
*>D	*>D	*
*k[b-e-a-d-]	*k[b-e-a-d-]	*
*ped	*	*
4AA-'<	(>8ccL	.
.	8dd-J	.
:4f 4c 4E-	4.ee-	.
*Xped	*	*
.	.	.
4r	.	.
.	8ff	.
=85	=85	=85
.	.	.
*ped	*	*
4EE-'<	8ee-L	.
.	8ddnJ	.
4g 4d-	4.dd-X	.
*Xped	*	*
4g 4d-	.	.
.	8cc	.
=86	=86	=86
*ped	*	*
4E-	8b-M>L	.
.	8an	.
4e- 4d-	8b-	.
.	8ccJ	.
*Xped	*	*
4e- 4d-	4g\	.
=87	=87	=87
.	8qb-/	.
*ped	*	*
(>4AA-	8a-L	.
.	16r	.
.	16gJk	.
4c 4E-)	4a-)	.
*Xped	*	*
4r	(>4c	.
=88	=88	=88
*ped	*	*
4FF	8a-\L	.
.	8b-J	.
4f 4A-	4.cc	.
*Xped	*	*
4f 4c 4A-	.	.
.	8dd-	.
=89	=89	=89
*ped	*	*
4C	8ccL	.
.	8bnJ	.
4en 4B-	4.b-X	.
*Xped	*	*
4e 4B-	.	.
.	8a-\	.
=90	=90	=90
*ped	*	*
4C	8gmL	.
.	8f	.
4c 4B-	8g	.
.	8a-J	.
*Xped	*	*
4c 4B-	4en	.
=91	=91	=91
*	*^	*
!	!LO:N:vis=2	!	!
*ped	*	*	*
4FF	8fL	2f	.
.	16r	.	.
.	16ffJk	.	.
4d- 4A- 4D-	4.ee-	.	.
*Xped	*	*	*
[>4E- (<4GG\	.	4e-	.
.	8dd-	.	.
*	*v	*v	*
=92	=92	=92
*ped	*	*
(>4E-] 4AA-)	8ccL	.
.	8dd-J	.
*clefG2	*	*
4a- 4c)	4ee-	.
*Xped	*	*
4r	8ggL	.
.	8ffJ	.
*clefF4	*	*
=93	=93	=93
*ped	*	*
4EE-	8ee-L	.
.	8ddnJ	.
4g 4d-	4.dd-X	.
4g [<4d-	.	.
*Xped	*	*
.	8cc	.
!!LO:LB:g=original
=94	=94	=94
*^	*	*
*ped	*	*	*
4d-]	2E-	8b-M>L	.
.	.	8an	.
2d-	.	8b-	.
.	.	8ccJ	.
*Xped	*	*	*
.	4En	4g\	.
=95	=95	=95	=95
.	.	8qb-/	.
*ped	*	*	*
4re	2.F	8a-L	.
.	.	16r	.
.	.	16gJk	.
4c 4A-	.	4a-	.
*Xped	*	*	*
4c 4A-	.	4en	.
*v	*v	*	*
=96	=96	=96
*ped	*	*
4D-	8.fL	.
.	16gJk	.
4f 4B- 4G	4a-	.
*Xped	*	*
4f 4B- 4G	4b-/	.
=97	=97	=97
*ped	*	*
4C	8.ccL	.
.	16dd-Jk	.
4en 4B-	4.cc	.
4e 4B-	.	.
*Xped	*	*
.	8g\	.
=98	=98	=98
.	16qqf/LL	.
.	16qqg/JJ	.
*ped	*	*
4D-	8fL\	.
.	8en	.
4B- 4G	8f	.
.	8g	.
*Xped	*	*
4f 4B- 4G	8a-	.
.	8b-J	.
=99	=99	=99
*ped	*	*
4C\	8ccL	.
.	8qee-/	.
.	8dd-J	.
4en 4G	4.cc	.
*Xped	*	*
4C\	.	.
.	8bn	.
=100	=100	=100
*^	*	*
*ped	*	*	*
!	!	!LO:TUP:a	!
4rc	2.D-	12b-XL	.
.	.	12cc	.
.	.	12b-J	.
4e-X 4G	.	8anL	.
.	.	8b-	.
*Xped	*	*	*
4e- 4G	.	8cc	.
.	.	8dd-J	.
*v	*v	*	*
=101	=101	=101
*ped	*	*
4C\	8ffL	.
.	8ee-J	.
4e- 4A-	2aa-	.
*Xped	*	*
4F	.	.
=102	=102	=102
*ped	*	*
4E-	8anL	.
.	8b-	.
4a-X 4dn 4B-	8gg	.
.	8ff	.
*Xped	*	*
4g 4d-X 4B-	8ee-	.
.	8e-J	.
=103	=103	=103
!LO:N:vis=2	!	!
*ped	*	*
(>4AA-\	8dd-L	.
.	8ccJ	.
4c 4E-)/	4a-X\	.
*Xped	*	*
4r	4r)	.
==	==	==
*-	*-	*-
!!title: @{OTL}; @{OPS} @{ONM} publisher: @{PPR}
!!!RDF**kern: > = above
!!!RDF**kern: < = below
!!!RDF**dynam: < = cresc: , fontstyle = "bold-italic"
!!!ENC: Wojciech Jakubiak-Danek
!!!END: 2018-06-17
!!!EED: Zofia Trojan
!!!EST: revision finished 2018-06-19
!!!EED2: Jacek Iwaszko
!!!EST2: revision finished 2018-11-05
!!!EED3: Marta Lawrence
!!!EST3: revision finished 2019-05-19
!!!rism-genre: Mazurka
!!!rism-key: A-flat major
!!!rism-opus: op.  50, no. 2
!!!rism-title: Mazurka in A-flat major op.  50, no. 2
!!!rism-permalink: https://opac.rism.info/search?id=1001029903&View=rism
!!!rism-773a-OPR: 1001029901
!!!rism-parent-permalink: https://opac.rism.info/search?id=1001029901&View=rism
